X:125
T:Drub the Rogue
A:Wyresdale, Lancashire
B:H.S.J. Jackson, 1823
L:1/8
M:6/8
O:England
Z:Richard Robinson 
%%TUNEURL: http://www.leeds.ac.uk/music/Info/RRTuneBk/gettune/00000e06.html
%%ID:00000e06
K:G
GFG A2B | cBA dBG | GFG A2B | cAF G3 ::
BdB A2d | ceG G2F | A2A Bgf | ed^c d3 ::
d2d dBc | ded dcc | A2c BGd | dcB B2A |
GFG A2B | cBA dBG | ege dBd | cBA G3 ::
%page:18
